sys/assets/icons/vector/24.svg

<?xml version="1.0" encoding="UTF-8" standalone="no"?>
<svg
   xmlns:dc="http://purl.org/dc/elements/1.1/"
   xmlns:cc="http://creativecommons.org/ns#"
   xmlns:rdf="http://www.w3.org/1999/02/22-rdf-syntax-ns#"
   xmlns:svg="http://www.w3.org/2000/svg"
   xmlns="http://www.w3.org/2000/svg"
   xmlns:sodipodi="http://sodipodi.sourceforge.net/DTD/sodipodi-0.dtd"
   xmlns:inkscape="http://www.inkscape.org/namespaces/inkscape"
   width="24"
   height="24"
   viewBox="0 0 24 24"
   version="1.1"
   id="svg918"
   sodipodi:docname="24.svg"
   inkscape:version="0.92.3 (unknown)">
  <metadata
     id="metadata924">
    <rdf:RDF>
      <cc:Work
         rdf:about="">
        <dc:format>image/svg+xml</dc:format>
        <dc:type
           rdf:resource="http://purl.org/dc/dcmitype/StillImage" />
        <dc:title />
      </cc:Work>
    </rdf:RDF>
  </metadata>
  <defs
     id="defs922" />
  <sodipodi:namedview
     pagecolor="#ffffff"
     bordercolor="#666666"
     borderopacity="1"
     objecttolerance="10"
     gridtolerance="10"
     guidetolerance="10"
     inkscape:pageopacity="0"
     inkscape:pageshadow="2"
     inkscape:window-width="1883"
     inkscape:window-height="1012"
     id="namedview920"
     showgrid="false"
     inkscape:zoom="8"
     inkscape:cx="-36.220753"
     inkscape:cy="13.815141"
     inkscape:window-x="0"
     inkscape:window-y="32"
     inkscape:window-maximized="1"
     inkscape:current-layer="svg918" />
  <path
     d="M 3.0804155,1.9999998 2.0000003,3.1701564 3.9338381,5.1039943 C 3.8302257,5.3303077 3.7666729,5.5785847 3.7666729,5.8430404 V 16.654232 c 0,0.991026 0.8108393,1.801865 1.8018652,1.801865 H 17.285941 L 20.829844,22 22,20.828083 Z M 10.073201,2.2393101 8.4244241,4.0411752 H 7.38624 l 3.2694,3.2553229 c 0.634646,-0.3417343 1.349495,-0.5525249 2.120359,-0.5525249 2.486574,0 4.504663,2.0180891 4.504663,4.5046628 0,0.762995 -0.206712,1.470998 -0.541967,2.101003 l 4.553933,4.532817 c 0.302972,-0.322745 0.492697,-0.753344 0.492697,-1.228224 V 5.8430404 c 0,-0.9910258 -0.810839,-1.8018652 -1.801865,-1.8018652 H 17.127574 L 15.478797,2.2393101 Z m 2.702798,6.1270452 c -0.30557,7.24e-4 -0.609082,0.05002 -0.899173,0.14605 l 3.638924,3.6195667 c 0.09319,-0.285233 0.141279,-0.583267 0.14253,-0.883336 -3.88e-4,-1.5916787 -1.290602,-2.8818917 -2.882281,-2.8822807 z m -4.2231216,1.356679 1.3478797,1.3478787 c -0.00417,0.05915 -0.00652,0.118424 -0.00704,0.177723 3.883e-4,1.591678 1.2906019,2.881892 2.8822809,2.882281 0.05873,-0.0012 0.117412,-0.0041 0.175963,-0.0088 l 1.34964,1.34967 c -0.475954,0.176877 -0.987047,0.281541 -1.525603,0.281541 -2.486574,0 -4.5046635,-2.018089 -4.5046635,-4.504663 0,-0.538556 0.1046641,-1.04965 0.2815415,-1.5256017 z"
     id="circle912"
     inkscape:connector-curvature="0"
     sodipodi:nodetypes="cccsssccccccccssccsssccccccccccccccssc"
     style="stroke-width:0.90093261" />
  <path
     d="M0 0h24v24H0z"
     fill="none"
     id="path916" />
</svg>

<svg xmlns="http://www.w3.org/2000/svg" width="24" height="24"><path d="M3.08 2L2 3.17l1.934 1.934a1.768 1.768 0 00-.167.739v10.811c0 .991.81 1.802 1.802 1.802h11.717L20.83 22 22 20.828zm6.993.24l-1.649 1.8H7.386l3.27 3.255a4.452 4.452 0 012.12-.552 4.506 4.506 0 014.505 4.505 4.45 4.45 0 01-.542 2.1l4.554 4.533a1.79 1.79 0 00.492-1.228V5.843c0-.991-.81-1.802-1.802-1.802h-2.855l-1.65-1.802zm2.703 6.126c-.306.001-.61.05-.9.146l3.64 3.62c.093-.285.141-.583.142-.883a2.883 2.883 0 00-2.882-2.883zM8.553 9.723L9.9 11.071a2.883 2.883 0 002.875 3.06c.059-.001.117-.004.176-.009l1.35 1.35a4.363 4.363 0 01-1.526.281 4.506 4.506 0 01-4.505-4.504c0-.539.105-1.05.282-1.526z"/><path d="M0 0h24v24H0z" fill="none"/></svg>
